flaticon/files-and-folders/clipboard-17.svg

<svg xmlns="http://www.w3.org/2000/svg" width="32" height="32" viewBox="0 0 24 24">
    <path d="M 18.398438 2.800781 L 16.398438 2.800781 L 16.398438 2.398438 C 16.398438 1.960938 16.039062 1.601562 15.601562 1.601562 L 14.398438 1.601562 L 14.398438 1.199219 C 14.398438 0.519531 13.878906 0 13.199219 0 L 10.800781 0 C 10.121094 0 9.601562 0.558594 9.601562 1.199219 L 9.601562 1.601562 L 8.398438 1.601562 C 7.960938 1.601562 7.601562 1.960938 7.601562 2.398438 L 7.601562 2.800781 L 5.601562 2.800781 C 4.480469 2.800781 3.601562 3.679688 3.601562 4.800781 L 3.601562 22 C 3.601562 23.121094 4.480469 24 5.601562 24 L 18.398438 24 C 19.519531 24 20.398438 23.121094 20.398438 22 L 20.398438 4.800781 C 20.398438 3.679688 19.519531 2.800781 18.398438 2.800781 Z M 8.398438 2.398438 L 10 2.398438 C 10.238281 2.398438 10.398438 2.238281 10.398438 2 L 10.398438 1.199219 C 10.398438 0.960938 10.558594 0.800781 10.800781 0.800781 L 13.199219 0.800781 C 13.441406 0.800781 13.601562 1 13.601562 1.199219 L 13.601562 2 C 13.601562 2.238281 13.761719 2.398438 14 2.398438 L 15.601562 2.398438 L 15.601562 5.199219 L 8.398438 5.199219 Z M 19.601562 22 C 19.601562 22.679688 19.078125 23.199219 18.398438 23.199219 L 5.601562 23.199219 C 4.921875 23.199219 4.398438 22.679688 4.398438 22 L 4.398438 4.800781 C 4.398438 4.121094 4.921875 3.601562 5.601562 3.601562 L 7.601562 3.601562 L 7.601562 5.199219 C 7.601562 5.640625 7.960938 6 8.398438 6 L 15.601562 6 C 16.039062 6 16.398438 5.640625 16.398438 5.199219 L 16.398438 3.601562 L 18.398438 3.601562 C 19.078125 3.601562 19.601562 4.121094 19.601562 4.800781 Z M 19.601562 22"/>
    <path d="M 11.960938 9.640625 C 10.480469 9.640625 9.039062 10.238281 8.078125 11.359375 C 7.921875 11.519531 7.960938 11.761719 8.121094 11.921875 C 8.28125 12.078125 8.519531 12.039062 8.679688 11.878906 C 9.519531 10.921875 10.71875 10.398438 12 10.398438 C 14.441406 10.398438 16.398438 12.359375 16.398438 14.800781 C 16.398438 17.238281 14.441406 19.199219 12 19.199219 C 10.007812 19.199219 8.257812 17.839844 7.714844 16 L 9.601562 16 L 9.601562 15.199219 L 7.246094 15.199219 C 7.203125 15.191406 7.160156 15.191406 7.121094 15.199219 L 6.398438 15.199219 L 6.398438 18.398438 L 7.199219 18.398438 L 7.199219 16.964844 C 8.039062 18.75 9.914062 20 12 20 C 14.878906 20 17.160156 17.71875 17.160156 14.839844 C 17.160156 11.960938 14.839844 9.640625 11.960938 9.640625 Z M 11.960938 9.640625"/>
</svg>

<svg xmlns="http://www.w3.org/2000/svg" width="32" height="32" viewBox="0 0 24 24">
    <path d="M18.398 2.8h-2v-.402a.8.8 0 0 0-.796-.796h-1.204v-.403C14.398.52 13.878 0 13.2 0h-2.398c-.68 0-1.2.559-1.2 1.2v.402H8.399a.8.8 0 0 0-.796.796v.403h-2c-1.122 0-2 .879-2 2V22c0 1.121.878 2 2 2h12.796c1.122 0 2-.879 2-2V4.8c0-1.12-.878-2-2-2zm-10-.402H10c.238 0 .398-.16.398-.398v-.8c0-.24.16-.4.403-.4h2.398a.4.4 0 0 1 .403.4V2c0 .238.16.398.398.398h1.602V5.2H8.398zM19.602 22c0 .68-.524 1.2-1.204 1.2H5.602A1.18 1.18 0 0 1 4.398 22V4.8c0-.679.524-1.198 1.204-1.198h2v1.597c0 .442.359.801.796.801h7.204c.437 0 .796-.36.796-.8V3.601h2c.68 0 1.204.52 1.204 1.199zm0 0"/>
    <path d="M11.96 9.64c-1.48 0-2.92.598-3.882 1.72-.156.16-.117.402.043.562.16.156.399.117.559-.043.84-.957 2.039-1.48 3.32-1.48a4.386 4.386 0 0 1 4.398 4.402A4.385 4.385 0 0 1 12 19.199c-1.992 0-3.742-1.36-4.285-3.199h1.887v-.8H7.246a.336.336 0 0 0-.125 0h-.723v3.198H7.2v-1.433A5.352 5.352 0 0 0 12 20a5.123 5.123 0 0 0 5.16-5.16 5.19 5.19 0 0 0-5.2-5.2zm0 0"/>
</svg>
